X:5489
T:Reel du Pecheur 1
O:england
R:reel
S:Jean Carignan; Songs, Fiddle Tunes and a Folktale from Canada, Folkways
M:C|
E:8
K:Bb
|:B3c BFDF|BcdB cB3|df2g fdBd|cAFA cedc|\
B2Bc BFDF|BcdB cB3|df2g fdBd|cAFA B4:|
|:f3g fdBd|gagf g2ga|bagf edcB|ABcA F4|\
f3g fdBd|gagf g2ga|bagf edcB|ABcA B4:|


